X: 5696
T: C.M. Hall
R: reel
M: 4/4
K: Gmajor
"G"B4 BcBA|G2B2 D2Bc|d2d2 edB2|d6 ef|"C"g4 f3g|"G"e2d2 B2G2|
"D"A2d2 "A7"^c2e2|"D7"d2c2 B2A2|"G"B4 BcBA|G2B2 D2Bc|d2d2 edB2|d6 ef|
"C"g4 f3g|"G"e2d2 B2G2|"D7"A2G2 E2D2|"G"G6 B2||"Em"e4 e2B2|g2f2 e2B2|
e3f g2f2|e4 f3e|"D"d4 d3e|f2e2 d2fg|a2g2 f2e2|d2c2 B2A2|
"G"B4 BcBA|G2B2 D2Bc|d2d2 edB2|d6 ef|"C"g4 f3g|"G"e2d2 B2G2|
"D"A2G2 E2D2|"G"G8||

